!!!COM: Palestrina, Giovanni Perluigi da
!!!OPR: Missa In semidupl. maj. (II)
!!!OMD: Credo
!!!OTL: Et resurrexit
**kern	**kern	**kern	**kern
*Itenor	*Itenor	*Icalto	*Icant
!Tenor 2	!Tenor 1	!Altus	!Cantus
*clefGv2	*clefGv2	*clefG2	*clefG2
*k[b-]	*k[b-]	*k[b-]	*k[b-]
*F:ion	*F:ion	*F:ion	*F:ion
*M4/2	*M4/2	*M4/2	*M4/2
=70	=70	=70	=70
0r	0r	1g	0r
.	.	2g	.
.	.	2g	.
=71	=71	=71	=71
0r	1r	1f	0r
.	1c	2e	.
.	.	[2g	.
=72	=72	=72	=72
0r	2c	4g]	0r
.	.	4f	.
.	2c	2e	.
.	1B-	1d	.
=73	=73	=73	=73
0r	2A	2.c	1cc
.	2.c	.	.
.	.	4d	.
.	.	2e	2cc
.	4B-	.	.
.	2A	[2f	2cc
=74	=74	=74	=74
0r	1G	2f]	1b-
.	.	2e	.
.	[1F	1f	2a
.	.	.	[2cc
=75	=75	=75	=75
2r	1F]	2c	4cc]
.	.	.	4b-
2F	.	2.f	2a
1c	2r	.	1g
.	.	8e	.
.	.	8d	.
.	2C	2e	.
=76	=76	=76	=76
2c	1F	2f	1f
1c	.	2.a	.
.	2F	.	1r
.	.	4g	.
[2d	2F	2f	.
=77	=77	=77	=77
4d]	1A	2.e	2r
4c	.	.	.
1c	.	.	2c
.	.	8d	.
.	.	8c	.
.	2.G	1d	1g
2B	.	.	.
.	4F	.	.
=78	=78	=78	=78
0c	4E	1c	2g
.	4D	.	.
.	2E	.	2g
.	[1F	2r	[1a
.	.	2F	.
=79	=79	=79	=79
0r	2F]	1c	2a]
.	4E	.	4g
.	4D	.	4f
.	2E	2c	2g
.	2F	2c	[2a
=80	=80	=80	=80
1F	4D	2d	4a]
.	4E	.	4g
.	4F	2.c	2f
.	4G	.	.
1c	4A	.	1e
.	4B-	4d	.
.	2c	4e	.
.	.	4f	.
=81	=81	=81	=81
2c	2C	1g	2r
2c	1c	.	2e
1d	.	1G	1g
.	2B	.	.
=82	=82	=82	=82
1c	2c	1r	2g
.	2C	.	2g
1r	[1F	2r	1a
.	.	2F	.
=83	=83	=83	=83
1C	2F]	1c	2g
.	2E	.	2.cc
1F	1A	2c	.
.	.	.	4b-
.	.	2c	4a
.	.	.	4g
=84	=84	=84	=84
2F	2.D	1d	4f
.	.	.	4d
2F	.	.	2.f
.	4E	.	.
2.A	2.F	1c	.
.	.	.	4g
.	.	.	[2a
4G	4G	.	.
=85	=85	=85	=85
1F	1A	[0c	4a]
.	.	.	4g
.	.	.	1f
1C	1G	.	.
.	.	.	2e
=86	=86	=86	=86
[0F	[0A	1c_	[0f
.	.	1c_	.
=87	=87	=87	=87
0F]	0A]	0c]	0f]
*-	*-	*-	*-
!!!CDT: 1525/^1526/-1594/2/2
!!!OCY: Italia
!!!AGN: Mass (Paraphrase)
!!!AST: renaissance, vocal
!!!ASW: Gregorian Mass
!!!PWK: Masses, Book Mantuan II
!!!RNB: Cadence finals: C
!!!YOR: Le Opere Complete, v. 19, p. 87
!!!YOO: Rome, Italy: Fratelli Scalera
!!!END: 1992//
!!!EED: John Miller
!!!YEC: Copyright 2000, John Miller
!!!YEN: United States of America
!!!YEM: Rights to all derivative electronic formats reserved.
!!!YEM: Refer to licensing agreement for further details.
!!!YEM: This file must be accompanied by the licensing agreement.
!!!YEM: A copy of the licensing agreement may be found at http://www.music-cog.ohio-state.edu/HumdrumDatabases/Palestrina/license.txt
!!!EMD: converted to Humdrum by Bret Aarden
